public/assets/imgs/projetos/icons/diamond.svg

<svg fill="none" height="41" viewBox="0 0 49 41" width="49" xmlns="http://www.w3.org/2000/svg"><path clip-rule="evenodd" d="m10.6604 2.61629c-.0311-.08325-.1066-.14404-.1976-.15916-.0911-.01513-.1836.01776-.2422.0861l-7.47894 8.71717c-.06296.0734-.07606.1749-.03365.2607.0424.0858.13272.1406.23192.1406h10.73897c.0835 0 .1617-.0389.2098-.1042.048-.0653.0599-.1489.0318-.2241zm11.4089 33.11251c.0791.091.2147.115.3226.0571.1078-.0578.1572-.181.1175-.293l-7.8658-22.1915c-.0354-.0996-.1331-.1667-.243-.1667h-11.44127c-.09952 0-.19007.0551-.2323.1414-.04223.0862-.02853.188.03515.2612zm.4965-33.86129c.0592-.07422.0693-.17414.026-.25782s-.1324-.13664-.2299-.13664h-10.1298c-.0835 0-.1617.03885-.2098.10415-.0481.06531-.0599.14889-.0318.22409l3.2339 8.64731c.0317.0847.1093.146.2022.1598.0929.0139.1863-.0221.2433-.0936zm-6.4862 10.56169c-.0519.065-.0665.1504-.039.2278l8.69 24.5166c.0357.1007.1349.1679.246.1667.111-.0013.2086-.0708.2418-.1723l7.7507-23.7145c.0244-.0745.0102-.1557-.0381-.2187-.0484-.0629-.1251-.1001-.2067-.1001h-12.5856c-.425 0-.7696-.3297-.7696-.7365s.3446-.7365.7696-.7365h11.8554c.0985 0 .1882-.054.231-.1388.0428-.0849.0311-.1857-.0302-.2595l-7.5418-9.08148c-.0492-.05927-.1242-.09349-.2033-.09275-.0792.00075-.1535.03637-.2015.09656zm11.305 23.0457c-.0369.1128.0154.2347.1245.2901s.2439.0286.3209-.0638l18.4703-22.1679c.0614-.0737.0733-.1746.0305-.2596-.0427-.085-.1326-.139-.2311-.139h-11.225c-.1122 0-.2114.0698-.2449.1723zm18.6578-23.8132c.0995 0 .19-.0551.2323-.1413.0422-.0862.0286-.188-.0351-.2612l-7.5464-8.68446c-.0597-.06873-.1537-.10096-.2455-.08416-.0917.01681-.1666.08-.1956.16497l-2.9613 8.68445c-.0255.0748-.012.1567.0363.2203.0482.0637.1254.1014.2076.1014zm-9.1159-9.86698c.0255-.07476.012-.15669-.0363-.22034-.0482-.06365-.1255-.10133-.2076-.10133h-10.1204c-.0985 0-.1883.05394-.2311.13881-.0428.08486-.031.18568.0302.25945l7.1746 8.63929c.0587.0707.1533.1048.2463.0888.0929-.016.1691-.0795.1984-.1654zm-26.7465-1.525568c.1462-.1703912.3645-.269152.5949-.269152h27.322c.2287 0 .4455.0973278.5917.265599l10.1335 11.661701c.2334.2685.2376.657.01.9301l-23.2173 27.8653c-.1442.1731-.3622.2749-.5936.2773-.2313.0023-.4515-.0951-.5996-.2653l-24.243429-27.8652c-.236289-.2716-.2377005-.6655-.003363-.9387z" fill="#000" fill-rule="evenodd"/></svg>

<svg width="49" height="41" viewBox="0 0 49 41" fill="none" xmlns="http://www.w3.org/2000/svg">
<path fill-rule="evenodd" clip-rule="evenodd" d="M10.6604 2.61629C10.6293 2.53304 10.5538 2.47225 10.4628 2.45713C10.3717 2.442 10.2792 2.47489 10.2206 2.54323L2.74166 11.2604C2.6787 11.3338 2.6656 11.4353 2.70801 11.5211C2.75041 11.6069 2.84073 11.6617 2.93993 11.6617H13.6789C13.7624 11.6617 13.8406 11.6228 13.8887 11.5575C13.9367 11.4922 13.9486 11.4086 13.9205 11.3334L10.6604 2.61629ZM22.0693 35.7288C22.1484 35.8198 22.284 35.8438 22.3919 35.7859C22.4997 35.7281 22.5491 35.6049 22.5094 35.4929L14.6436 13.3014C14.6082 13.2018 14.5105 13.1347 14.4006 13.1347H2.95933C2.85981 13.1347 2.76926 13.1898 2.72703 13.2761C2.6848 13.3623 2.6985 13.4641 2.76218 13.5373L22.0693 35.7288ZM22.5658 1.86751C22.625 1.79329 22.6351 1.69337 22.5918 1.60969C22.5485 1.52601 22.4594 1.47305 22.3619 1.47305H12.2321C12.1486 1.47305 12.0704 1.5119 12.0223 1.5772C11.9742 1.64251 11.9624 1.72609 11.9905 1.80129L15.2244 10.4486C15.2561 10.5333 15.3337 10.5946 15.4266 10.6084C15.5195 10.6223 15.6129 10.5863 15.6699 10.5148L22.5658 1.86751ZM16.0796 12.4292C16.0277 12.4942 16.0131 12.5796 16.0406 12.657L24.7306 37.1736C24.7663 37.2743 24.8655 37.3415 24.9766 37.3403C25.0876 37.339 25.1852 37.2695 25.2184 37.168L32.9691 13.4535C32.9935 13.379 32.9793 13.2978 32.931 13.2348C32.8826 13.1719 32.8059 13.1347 32.7243 13.1347H20.1387C19.7137 13.1347 19.3691 12.805 19.3691 12.3982C19.3691 11.9914 19.7137 11.6617 20.1387 11.6617H31.9941C32.0926 11.6617 32.1823 11.6077 32.2251 11.5229C32.2679 11.438 32.2562 11.3372 32.1949 11.2634L24.6531 2.18192C24.6039 2.12265 24.5289 2.08843 24.4498 2.08917C24.3706 2.08992 24.2963 2.12554 24.2483 2.18573L16.0796 12.4292ZM27.3846 35.4749C27.3477 35.5877 27.4 35.7096 27.5091 35.765C27.6182 35.8204 27.753 35.7936 27.83 35.7012L46.3003 13.5333C46.3617 13.4596 46.3736 13.3587 46.3308 13.2737C46.2881 13.1887 46.1982 13.1347 46.0997 13.1347H34.8747C34.7625 13.1347 34.6633 13.2045 34.6298 13.307L27.3846 35.4749ZM46.0424 11.6617C46.1419 11.6617 46.2324 11.6066 46.2747 11.5204C46.3169 11.4342 46.3033 11.3324 46.2396 11.2592L38.6932 2.57474C38.6335 2.50601 38.5395 2.47378 38.4477 2.49058C38.356 2.50739 38.2811 2.57058 38.2521 2.65555L35.2908 11.34C35.2653 11.4148 35.2788 11.4967 35.3271 11.5603C35.3753 11.624 35.4525 11.6617 35.5347 11.6617H46.0424ZM36.9265 1.79472C36.952 1.71996 36.9385 1.63803 36.8902 1.57438C36.842 1.51073 36.7647 1.47305 36.6826 1.47305H26.5622C26.4637 1.47305 26.3739 1.52699 26.3311 1.61186C26.2883 1.69672 26.3001 1.79754 26.3613 1.87131L33.5359 10.5106C33.5946 10.5813 33.6892 10.6154 33.7822 10.5994C33.8751 10.5834 33.9513 10.5199 33.9806 10.434L36.9265 1.79472ZM10.18 0.269152C10.3262 0.0987608 10.5445 0 10.7749 0H38.0969C38.3256 0 38.5424 0.0973278 38.6886 0.265599L48.8221 11.9273C49.0555 12.1958 49.0597 12.5843 48.8321 12.8574L25.6148 40.7227C25.4706 40.8958 25.2526 40.9976 25.0212 41C24.7899 41.0023 24.5697 40.9049 24.4216 40.7347L0.178171 12.8695C-0.058118 12.5979 -0.0595295 12.204 0.174808 11.9308L10.18 0.269152Z" fill="black"/>
</svg>
